!!!id: EG076b
!!!page: 54-56
!!!COM: Anonymous
!!!LYR: Anonymous
!!!PTL@@FR: Chansons Populaires du Canada
!!!OTL@@FR: Mon beau ruban gris
!!!PUB: G. E. Desbarats
!!!YEM:
!!!PDT: 1865
!!!SMA:
!!!OMD:
!!!AGN-Laforte:
!!!AGN-type:
!!!AGN-rime:
**kern
*clefG2
*k[]
*C:
*M3/8
*
*
8g
=1
4cc
8dd
=2
(4cc
8b)
=3
(4a
8g)
=4
4a
8b/
=5
4cc
8g
!!LO:PB:g=original
=6
4cc
8dd
=7
(4cc
8b)
=8
(4a
8g)
=9
4a
8b/
=10
8cc
8r
8g
=11
4cc
8dd
!!LO:PB:g=original
=12
4dd
8ee
=13
4ff
8ee
=14
4dd
8dd
=15
8cc
8dd
8ee
=16
4dd
8dd
=17
8cc
8b
8a
!!LO:PB:g=original
=18
8g
8r
8g
=19
8cc
8cc
8cc
=20
4cc
8cc
=21
8cc
8cc
8cc
=22
4cc
8cc
!!LO:PB:g=original
=23
4b
8dd
=24
4gg
8gg
=25
8ff
8ee
8dd
=26
4cc
==||
8r
==||
*
*
==|
!!!RNB: Final eighth rest flipped backward in original
*-
